packages/core/src/svgs/tokens/mono/CVR.svg

<svg width="24" height="24" viewBox="0 0 24 24" fill="none" xmlns="http://www.w3.org/2000/svg">
<path d="M8.337 4.5H14.012C13.8996 4.60624 13.6808 4.95 13.6808 5.475C13.6808 6 13.7744 6.21875 13.8245 6.37499H8.2495V13.6L12.3683 16.0812L16.3745 13.6V8.61878C16.5246 8.64999 16.6307 8.72495 16.8746 8.72495C17.6558 8.72495 18.1182 8.42497 18.2495 8.28118V13.7313C18.2495 14.375 17.9246 14.9812 17.3745 15.3375L13.4495 17.925C12.7933 18.3562 11.9432 18.3625 11.2807 17.9312L7.26201 15.3312C6.99118 15.1579 6.76807 14.9196 6.61305 14.6379C6.45801 14.3563 6.37601 14.0403 6.37451 13.7187V6.43124C6.37451 5.36874 7.24951 4.5 8.337 4.5Z" fill="white"/>
<path d="M16.3745 8.24997C17.41 8.24997 18.2495 7.41052 18.2495 6.37499C18.2495 5.33946 17.41 4.5 16.3745 4.5C15.3389 4.5 14.4995 5.33946 14.4995 6.37499C14.4995 7.41052 15.3389 8.24997 16.3745 8.24997Z" fill="white"/>
<path d="M3.56153 2.7C3.56153 2.49375 3.74277 2.31251 3.98652 2.31251H20.0115C20.2552 2.31251 20.4365 2.5 20.4365 2.7V6.99999C20.3732 7.00044 20.3115 7.02013 20.2596 7.05642C20.2078 7.09271 20.1682 7.1439 20.146 7.20321C20.1238 7.26254 20.1203 7.32717 20.1356 7.38858C20.1511 7.44999 20.1848 7.50526 20.2323 7.54709C20.2799 7.58891 20.3389 7.61531 20.4018 7.6228C20.4646 7.63028 20.5284 7.61849 20.5844 7.58898C20.6404 7.5595 20.6861 7.51368 20.7155 7.4576C20.7449 7.40153 20.7566 7.33784 20.749 7.27499V2.7C20.749 2.30625 20.4115 2 20.0115 2H3.98652C3.58653 2 3.24902 2.30625 3.24902 2.7V7.48124C3.25483 7.55998 3.29167 7.63319 3.35144 7.68475C3.41122 7.73633 3.48904 7.76204 3.56777 7.75624C3.64651 7.75044 3.71971 7.7136 3.77128 7.65382C3.82286 7.59404 3.84857 7.51623 3.84277 7.43749C3.84277 7.28125 3.71778 7.15 3.56153 7.14374V2.7ZM5.23653 3.24999C4.83652 3.24999 4.49902 3.55624 4.49902 3.94999V10.675C4.49902 10.7875 4.46152 10.8875 4.40528 10.9562C4.34277 11.0188 4.26153 11.0625 4.14278 11.0625H3.98652C3.73653 11.0625 3.56153 10.875 3.56153 10.675V9.17499C3.6001 9.17383 3.63805 9.16493 3.67322 9.14903C3.7084 9.13314 3.74009 9.11053 3.76648 9.08239C3.79289 9.05424 3.8135 9.02114 3.82712 8.98497C3.84076 8.94895 3.84713 8.91045 3.8459 8.87181C3.84466 8.83331 3.83586 8.79539 3.81995 8.7601C3.80405 8.72495 3.78137 8.69331 3.75323 8.66691C3.72508 8.64051 3.69201 8.61995 3.6559 8.60624C3.61979 8.59268 3.58135 8.58626 3.54277 8.58743C3.39277 8.58743 3.26152 8.70628 3.24902 8.8562V10.675C3.24902 11.0688 3.58653 11.375 3.98652 11.375H4.14278C4.34903 11.375 4.51777 11.2938 4.64277 11.1626C4.75528 11.0313 4.81152 10.85 4.81152 10.675V3.94999C4.81152 3.74374 4.99902 3.5625 5.23653 3.5625H11.0177C11.0549 3.61382 11.1077 3.65174 11.1682 3.67061C11.2287 3.68946 11.2936 3.68827 11.3534 3.66718C11.4132 3.64609 11.4645 3.60624 11.4998 3.55358C11.535 3.50093 11.5523 3.43828 11.549 3.375C11.5522 3.30648 11.5312 3.23901 11.4898 3.18433C11.4483 3.12964 11.3891 3.09117 11.3223 3.07558C11.2556 3.05999 11.1854 3.06827 11.124 3.09898C11.0628 3.12971 11.0141 3.18091 10.9865 3.24375H5.23653V3.24999ZM13.2366 3.5625C13.2004 3.6169 13.1473 3.65773 13.0855 3.67857C13.0236 3.69939 12.9566 3.69904 12.8949 3.67755C12.8333 3.65604 12.7805 3.61464 12.7451 3.55985C12.7097 3.50507 12.6935 3.44003 12.699 3.375C12.6976 3.30704 12.7196 3.24068 12.7616 3.18718C12.8034 3.13369 12.8626 3.0964 12.929 3.08166C12.9953 3.06692 13.0648 3.07564 13.1253 3.10633C13.1859 3.13703 13.2341 3.1878 13.2615 3.24999H18.7177C18.9115 3.24999 19.1053 3.325 19.249 3.44375C19.3928 3.56874 19.4991 3.74374 19.4991 3.94375V10.6688C19.4991 10.9001 19.649 11.0625 19.874 11.0625H20.0115C20.2552 11.0625 20.4365 10.875 20.4365 10.6688V9.50006C20.3784 9.50006 20.3216 9.48387 20.2723 9.45339C20.2228 9.42276 20.1829 9.37916 20.1571 9.32724C20.1311 9.27533 20.12 9.21728 20.1253 9.15939C20.1305 9.10164 20.1517 9.04637 20.1865 8.99999C20.2214 8.95362 20.2683 8.91774 20.3224 8.8966C20.3764 8.87531 20.4353 8.86962 20.4923 8.87997C20.5495 8.89047 20.6026 8.91643 20.6458 8.95537C20.6888 8.99416 20.7203 9.04433 20.7365 9.10003H20.749V9.15005C20.7521 9.17485 20.7521 9.20008 20.749 9.22501V10.6688C20.749 11.0688 20.4115 11.375 20.0115 11.375H19.874C19.4553 11.375 19.1865 11.05 19.1865 10.6688V3.94999C19.1865 3.85625 19.1365 3.7625 19.049 3.68125C18.9564 3.60249 18.8393 3.5583 18.7177 3.55624H13.2303L13.2366 3.5625ZM19.5115 14.025C19.5115 13.9023 19.5602 13.7846 19.6469 13.698C19.7337 13.6112 19.8514 13.5625 19.974 13.5625C20.0967 13.5625 20.2142 13.6112 20.301 13.698C20.3878 13.7846 20.4365 13.9023 20.4365 14.025V15.8875C20.4365 16.1375 20.3115 16.3749 20.099 16.5124L16.2991 19.0125C16.256 18.9678 16.2008 18.9371 16.1402 18.9239C16.0797 18.9108 16.0167 18.9159 15.9591 18.9387C15.9015 18.9614 15.8519 19.0008 15.8168 19.0518C15.7816 19.1027 15.7624 19.1631 15.7615 19.2249C15.7637 19.2963 15.7901 19.3645 15.8365 19.4186C15.8828 19.4727 15.9463 19.5093 16.0163 19.5224C16.0863 19.5356 16.1588 19.5245 16.2215 19.4908C16.2843 19.4571 16.3336 19.403 16.3615 19.3375L20.274 16.7749C20.5677 16.575 20.749 16.2437 20.749 15.8875V14.025C20.749 13.8195 20.6673 13.6223 20.5219 13.4769C20.3767 13.3317 20.1795 13.25 19.974 13.25C19.7684 13.25 19.5714 13.3317 19.426 13.4769C19.2806 13.6223 19.1989 13.8195 19.1989 14.025V15.35C19.1989 15.525 19.1177 15.6937 18.9741 15.7938L17.6865 16.7312C17.642 16.7128 17.5938 16.7055 17.5459 16.7102C17.4981 16.7147 17.452 16.731 17.4119 16.7576C17.3718 16.7841 17.3388 16.8202 17.3158 16.8624C17.2929 16.9046 17.2807 16.9518 17.2802 17C17.2802 17.1624 17.4177 17.2937 17.5802 17.2937C17.6204 17.2938 17.6603 17.2856 17.6972 17.2698C17.734 17.2539 17.7673 17.2305 17.7949 17.2012C17.8224 17.1719 17.8437 17.1372 17.8573 17.0994C17.8708 17.0617 17.8765 17.0214 17.874 16.9813L19.1552 16.0437C19.3802 15.8875 19.5115 15.625 19.5115 15.35V14.025ZM4.03027 13.6C3.90596 13.6 3.78673 13.6494 3.69882 13.7372C3.61091 13.8252 3.56153 13.9445 3.56153 14.0687V15.5562C3.56109 15.7687 3.61482 15.9777 3.71761 16.1636C3.82041 16.3495 3.96888 16.5062 4.14902 16.6188L7.84902 18.925C7.89598 18.9102 7.94576 18.9067 7.99432 18.9149C8.04287 18.9229 8.08882 18.9425 8.12841 18.9718C8.16801 19.0009 8.20015 19.0391 8.22218 19.0832C8.24423 19.1271 8.25556 19.1758 8.25527 19.2249C8.25523 19.2687 8.24603 19.3119 8.22828 19.3517C8.21053 19.3916 8.18463 19.4274 8.15223 19.4565C8.11982 19.4858 8.08164 19.508 8.04017 19.5216C7.99868 19.5353 7.9548 19.5399 7.91137 19.5356C7.86792 19.5312 7.82588 19.5178 7.78796 19.4962C7.75003 19.4745 7.71706 19.4451 7.69116 19.41C7.66527 19.3749 7.64703 19.3346 7.63761 19.292C7.6282 19.2494 7.62782 19.2053 7.63652 19.1625L3.98652 16.8813C3.76122 16.7411 3.57528 16.546 3.44626 16.3143C3.31723 16.0824 3.24936 15.8215 3.24902 15.5562V14.0624C3.24902 13.8552 3.33133 13.6566 3.47785 13.51C3.62435 13.3636 3.82307 13.2812 4.03027 13.2812C4.23747 13.2812 4.43619 13.3636 4.5827 13.51C4.72922 13.6566 4.81152 13.8552 4.81152 14.0624V15.0624C4.81152 15.3749 4.96777 15.6688 5.23027 15.8438L6.19277 16.4812C6.23701 16.4564 6.28695 16.4435 6.3377 16.4436C6.38843 16.4438 6.43826 16.4572 6.48232 16.4823C6.52639 16.5075 6.56317 16.5437 6.5891 16.5873C6.61503 16.6309 6.6292 16.6804 6.63027 16.7312C6.63151 16.7703 6.62505 16.8091 6.61127 16.8455C6.59748 16.882 6.57664 16.9155 6.54994 16.944C6.52325 16.9724 6.49122 16.9953 6.45566 17.0113C6.42012 17.0274 6.38175 17.0363 6.34277 17.0374C6.30379 17.0388 6.26494 17.0322 6.22845 17.0185C6.19195 17.0046 6.15854 16.9839 6.1301 16.9572C6.10167 16.9304 6.07877 16.8985 6.0627 16.8629C6.04664 16.8273 6.03775 16.7889 6.03652 16.75L5.05527 16.1C4.88497 15.987 4.74513 15.8339 4.6481 15.6539C4.55108 15.4741 4.49988 15.2732 4.49902 15.0687V14.0624C4.49902 13.9382 4.44964 13.8189 4.36173 13.731C4.27382 13.6432 4.15459 13.5937 4.03027 13.5937V13.6ZM16.6053 17.6625L12.6241 20.2749C12.3365 20.4625 11.9678 20.4625 11.6802 20.2749L7.78026 17.7125C7.73602 17.7373 7.68608 17.7503 7.63535 17.7501C7.5846 17.7498 7.53477 17.7366 7.49071 17.7113C7.44666 17.6863 7.40986 17.6501 7.38395 17.6065C7.35802 17.5629 7.34383 17.5131 7.34277 17.4625C7.34112 17.3838 7.37079 17.3075 7.42531 17.2508C7.4798 17.1939 7.55466 17.161 7.6334 17.1594C7.71213 17.1578 7.7883 17.1874 7.84515 17.2419C7.90199 17.2964 7.93486 17.3713 7.93652 17.45L11.849 20.0124C12.0365 20.1374 12.2678 20.1374 12.4553 20.0124L16.474 17.3874C16.479 17.3096 16.5147 17.2368 16.5734 17.1853C16.6318 17.1337 16.7085 17.1074 16.7866 17.1125C16.8644 17.1175 16.9372 17.1532 16.9887 17.2117C17.0403 17.2703 17.0664 17.347 17.0615 17.4249C17.0618 17.4776 17.0478 17.5293 17.0212 17.5747C16.9947 17.62 16.9565 17.6575 16.9104 17.683C16.8644 17.7086 16.8124 17.7213 16.7599 17.7199C16.7072 17.7185 16.6561 17.703 16.6116 17.675L16.6053 17.6625ZM11.6678 21.8813L9.30533 20.3187C9.26027 20.3398 9.21068 20.3493 9.1611 20.346C9.11137 20.3428 9.06344 20.327 9.0216 20.3002C8.97974 20.2733 8.9454 20.2363 8.92177 20.1925C8.89815 20.1488 8.88602 20.0996 8.88651 20.0499C8.88651 19.8875 9.02402 19.7562 9.18647 19.7562C9.22614 19.7562 9.26537 19.7642 9.30183 19.7797C9.33843 19.7953 9.37139 19.818 9.39881 19.8466C9.42622 19.8752 9.44766 19.9092 9.46166 19.9462C9.47566 19.9833 9.48193 20.0229 9.48033 20.0625L11.8428 21.6249C11.9467 21.6917 12.068 21.7261 12.1915 21.7238C12.315 21.7216 12.4351 21.6828 12.5366 21.6125L14.7178 20.1125C14.7044 20.0505 14.7114 19.9858 14.7378 19.9281C14.7642 19.8704 14.8085 19.8229 14.8642 19.7925C14.9199 19.762 14.9839 19.7505 15.0468 19.7596C15.1095 19.7686 15.1677 19.7978 15.2126 19.8427C15.2575 19.8875 15.2865 19.9456 15.2956 20.0085C15.3046 20.0712 15.2931 20.1354 15.2628 20.1909C15.2324 20.2466 15.1847 20.2911 15.1271 20.3175C15.0694 20.3439 15.0048 20.3509 14.9428 20.3375L12.7116 21.8688C12.5615 21.9749 12.3865 21.9937 12.2115 22C12.024 22 11.8366 21.9875 11.6678 21.875V21.8813Z" fill="white"/>
</svg>

<svg xmlns="http://www.w3.org/2000/svg" width="24" height="24" fill="none" viewBox="0 0 24 24">
    <path fill="#fff" d="M8.337 4.5h5.675c-.112.106-.331.45-.331.975s.093.744.144.9H8.25V13.6l4.118 2.481 4.007-2.481V8.619c.15.031.256.106.5.106.78 0 1.243-.3 1.375-.444v5.45c0 .644-.325 1.25-.875 1.607l-3.925 2.587a1.98 1.98 0 0 1-2.17.006l-4.018-2.6a1.93 1.93 0 0 1-.887-1.612V6.43c0-1.062.875-1.931 1.962-1.931"/>
    <path fill="#fff" d="M16.375 8.25a1.875 1.875 0 1 0 0-3.75 1.875 1.875 0 0 0 0 3.75"/>
    <path fill="#fff" d="M3.562 2.7c0-.206.18-.387.425-.387h16.025c.243 0 .424.187.424.387V7a.313.313 0 1 0 .313.275V2.7c0-.394-.337-.7-.737-.7H3.987c-.4 0-.738.306-.738.7v4.781a.298.298 0 0 0 .594-.044.295.295 0 0 0-.281-.293zm1.675.55c-.4 0-.738.306-.738.7v6.725a.45.45 0 0 1-.094.281.35.35 0 0 1-.262.107h-.156c-.25 0-.425-.188-.425-.388v-1.5a.293.293 0 0 0 .284-.303.295.295 0 0 0-.303-.285.3.3 0 0 0-.294.27v1.818c0 .394.338.7.738.7h.156a.67.67 0 0 0 .5-.212.76.76 0 0 0 .169-.488V3.95c0-.206.187-.388.425-.388h5.78a.294.294 0 0 0 .532-.187.293.293 0 0 0-.562-.131h-5.75zm8 .313a.295.295 0 0 1-.538-.188.294.294 0 0 1 .563-.125h5.456a.85.85 0 0 1 .531.194c.144.125.25.3.25.5v6.725c0 .231.15.393.375.393h.138c.243 0 .424-.187.424-.393V9.5a.312.312 0 1 1 .3-.4h.013v.05a.3.3 0 0 1 0 .075v1.444c0 .4-.337.706-.737.706h-.138c-.419 0-.687-.325-.687-.706V3.95c0-.094-.05-.187-.138-.269a.53.53 0 0 0-.331-.125H13.23zm6.275 10.462a.462.462 0 1 1 .924 0v1.862c0 .25-.125.488-.337.625l-3.8 2.5a.313.313 0 0 0-.537.213.312.312 0 0 0 .6.112l3.912-2.562c.294-.2.475-.531.475-.887v-1.863a.775.775 0 0 0-1.55 0v1.325a.54.54 0 0 1-.225.444l-1.288.937a.293.293 0 0 0-.406.269.299.299 0 0 0 .515.201.3.3 0 0 0 .079-.22l1.281-.937a.84.84 0 0 0 .357-.694zM4.03 13.6a.47.47 0 0 0-.468.469v1.487a1.25 1.25 0 0 0 .587 1.063l3.7 2.306a.31.31 0 0 1 .373.158.31.31 0 0 1-.07.373.312.312 0 0 1-.515-.293l-3.65-2.282a1.56 1.56 0 0 1-.738-1.325v-1.494a.781.781 0 0 1 1.563 0v1a.94.94 0 0 0 .418.782l.963.637a.295.295 0 0 1 .396.106q.04.067.041.144a.296.296 0 0 1-.5.226.3.3 0 0 1-.093-.207l-.982-.65a1.24 1.24 0 0 1-.556-1.031v-1.007a.47.47 0 0 0-.469-.468zm12.575 4.063-3.98 2.612a.86.86 0 0 1-.945 0l-3.9-2.562a.294.294 0 0 1-.355-.462.296.296 0 0 1 .512.199l3.912 2.562a.54.54 0 0 0 .606 0l4.019-2.625a.294.294 0 0 1 .587.038.293.293 0 0 1-.45.25zm-4.937 4.218L9.305 20.32a.294.294 0 0 1-.418-.27.299.299 0 0 1 .512-.202.3.3 0 0 1 .081.215l2.363 1.563a.62.62 0 0 0 .694-.012l2.18-1.5a.294.294 0 1 1 .226.224l-2.231 1.532c-.15.106-.325.125-.5.131-.188 0-.375-.012-.544-.125z"/>
</svg>
